X: 539
T: New  White Hart Hornpipe
M:3/2
L:1/8
S: 8: MCJLSH3 http://www.cpartington.plus.com/links/Walsh.abc
Z: Pete Stewart 2004
B: Walsh "Third Book of the most Celebrated jiggs, Lancashire hornpipes, ..."
K:D
d2Bc dB AG FGAF | G2E2efedc2A2 | BcdB ABAG FGAG | F2D2D2c2d4 ||
d2de fdfg fgad | c2a2B2^g2a2ed | cdec d2cB ABAG | FGAFD2c2d4 ||
dAF2BGE2AFD2 | cdefe2E2FGAF | d2A2B2G2A2F2 | gfed cdecd4 ||

%%sep 1 1 500
%%sep 1 1 500
